X:0
T: Indian Point
C: Rick Mohr
M: 6/8
K: Em
|: "Em"B,EF G2A | BAG FED | "C"CEF G2A | BAG BAG |
| "D"FED A,2D | FEF AGF |1 "Em"EFG BAG | "B7"F3 FED :|
:|2 "Em"GFE "D"FED | "Em"E3 -E2A |
|: "Em"Bef gfe | "C"cef gfe | "D"dfg agf | gfe fed |
| "Em"Bef gfe | "C"ceg "Am"a2a | "Em"bag "B7"fgf | "Em"e3 :|
